;FLAVOR:Marlin
;TIME:186
;Filament used: 0.104955m
;Layer height: 0.2
;MINX:-33.822
;MINY:-32.333
;MINZ:0.2
;MAXX:34.113
;MAXY:32.481
;MAXZ:0.4
;Generated with Cura_SteamEngine 4.12.1
M104 S200
M105
M109 S200
M82 ;absolute extrusion mode

G92 E0
G92 E0
G1 F1500 E-6.5
;LAYER_COUNT:2
;LAYER:0
M107
;MESH:RLlogo.png
G0 F3600 X-3.036 Y4.044 Z0.2
;TYPE:WALL-OUTER
G1 F1500 E0
G1 F1800 X-2.968 Y4.267 E0.00548
G1 X-3.55 Y4.212 E0.01391
G1 X-4.311 Y4.212 E0.0318
G1 X-4.347 Y4.209 E0.03265
G1 X-4.177 Y3.711 E0.03705
G1 X-3.955 Y2.992 E0.05475
G1 X-3.909 Y2.877 E0.05766
G1 X-3.625 Y3.121 E0.05867
G1 X-3.316 Y3.553 E0.0706
G1 X-3.036 Y4.044 E0.0792
G0 F3600 X-2.968 Y4.267
G0 X-3.109 Y4.254
G0 X-3.919 Y4.008
G1 F1500 E-6.4208
G0 F3600 X-3.469 Y5.966
G1 F1500 E0.0792
G0 F3600 X-3.718 Y6.652
G1 F1800 X-4.021 Y6.195 E0.09209
G1 X-4.103 Y6.035 E0.09632
G1 X-3.47 Y5.947 E0.1063
G1 X-2.759 Y5.916 E0.12304
G1 X-2.892 Y6.412 E0.12919
G1 X-3.056 Y6.751 E0.13804
G1 X-3.414 Y7.142 E0.15051
G1 X-3.473 Y7.195 E0.15237
G1 X-3.718 Y6.652 E0.1608
G0 F3600 X-3.925 Y6.34
G0 X-3.267 Y6.69
G1 F1500 E-6.3392
G0 F3600 X-4.949 Y7.513
G1 F1500 E0.1608
G0 F3600 X-4.933 Y7.503
G1 F1800 X-4.876 Y7.6 E0.16345
G1 X-5.193 Y7.519 E0.16712
G1 X-5.636 Y7.263 E0.17915
G1 X-6.175 Y6.878 E0.19472
G1 X-6.224 Y6.827 E0.19638
G1 X-5.82 Y6.531 E0.20116
G1 X-5.675 Y6.418 E0.20351
G1 X-5.362 Y6.905 E0.21261
G1 X-4.933 Y7.503 E0.22235
G0 F3600 X-4.876 Y7.6
G0 X-5.13 Y7.535
G1 F1500 E-6.27765
G0 F3600 X-5.106 Y7.44
G0 X-5.678 Y6.437
G0 X-7.001 Y5.182
G1 F1500 E0.22235
G0 F3600 X-6.722 Y4.916
G1 F1800 X-7.174 Y5.393 E0.2378
G1 X-7.294 Y5.106 E0.23924
G1 X-7.432 Y4.586 E0.24823
G1 X-7.433 Y3.833 E0.26594
G1 X-7.101 Y4.265 E0.26746
G1 X-6.83 Y4.734 E0.27663
G1 X-6.722 Y4.916 E0.27997
G0 F3600 X-6.979 Y5.188
G1 F1500 E-6.22003
G0 F3600 X-7.051 Y5.119
G0 X-7.427 Y3.851
G0 X-6.288 Y3.028
G1 F1500 E0.27997
G0 F3600 X-6.644 Y2.551
G1 F1800 X-6.741 Y2.477 E0.28284
G1 X-6.283 Y2.269 E0.29001
G1 X-5.367 Y2.244 E0.31156
G1 X-5.586 Y2.724 E0.31396
G1 X-5.76 Y3.225 E0.32643
G1 X-5.855 Y3.562 E0.33466
G1 X-6.201 Y3.182 E0.34044
G1 X-6.546 Y2.706 E0.3515
G1 X-6.644 Y2.551 E0.35194
G0 F3600 X-6.741 Y2.477
G0 X-6.511 Y2.373
G0 X-5.653 Y2.659
G1 F1500 E-6.14806
G0 F3600 X-5.663 Y2.654
G0 X-5.383 Y4.424
G0 X-1.587 Y5.617
G0 X-.529 Y5.627
G1 F1500 E0.35194
G0 F3600 X-.544 Y6.552
G1 F1800 X-.547 Y5.619 E0.37387
G1 X-.478 Y5.559 E0.37602
G1 X0.204 Y5.334 E0.39291
G1 X0.366 Y5.269 E0.39702
G1 X0.085 Y5.781 E0.40483
G1 X-.216 Y6.358 E0.41424
G1 X-.532 Y6.942 E0.42985
G1 X-.671 Y7.121 E0.43518
G1 X-.544 Y6.552 E0.44199
G0 F3600 X-.545 Y6.177
G1 F1500 E-6.05801
G0 F3600 X-.445 Y6.178
G0 X0.008 Y8.54
G1 F1500 E0.44199
G0 F3600 X-.182 Y8.914
G1 F1800 X-.626 Y9.217 E0.45463
G1 X-.303 Y8.821 E0.45568
G1 X-0.003 Y8.524 E0.46531
G1 X0.241 Y8.415 E0.4716
G1 X0.321 Y8.424 E0.47349
G1 X-.182 Y8.914 E0.48257
G0 F3600 X-.492 Y9.125
G1 F1500 E-6.01743
G0 F3600 X-.455 Y9.084
G0 X1.125 Y9.678
G0 X4.55 Y10.507
G1 F1500 E0.48257
G0 F3600 X4.569 Y10.442
G1 F1800 X4.983 Y10.482 E0.49235
G1 X5.177 Y10.534 E0.49707
G1 X4.591 Y10.603 E0.50319
G1 X4.016 Y10.664 E0.51663
G1 X3.594 Y10.676 E0.52655
G1 X3.043 Y10.673 E0.53951
G1 X2.285 Y10.674 E0.55733
G1 X2.168 Y10.671 E0.56008
G1 X1.408 Y10.672 E0.57795
G1 X0.847 Y10.635 E0.59117
G1 X0.435 Y10.573 E0.60097
G1 X0.77 Y10.123 E0.60768
G1 X1.109 Y9.667 E0.62104
G1 X1.414 Y9.231 E0.63355
G1 X1.441 Y9.194 E0.63463
G1 X1.859 Y9.482 E0.64657
G1 X2.37 Y9.725 E0.65987
G1 X2.937 Y9.964 E0.67434
G1 X3.497 Y10.152 E0.68652
G1 X4.224 Y10.351 E0.69834
G1 X4.569 Y10.442 E0.69977
G0 F3600 X4.943 Y10.478
G1 F1500 E-5.80023
G0 F3600 X4.915 Y10.515
G0 X8.348 Y12.027
G1 F1500 E0.69977
G0 F3600 X9.297 Y11.735
G1 F1800 X9.004 Y12.162 E0.71195
G1 X8.601 Y12.568 E0.7254
G1 X8.094 Y12.962 E0.74049
G1 X7.546 Y13.234 E0.75488
G1 X7.357 Y13.301 E0.75959
G1 X7.133 Y13.229 E0.76513
G1 X7.399 Y12.737 E0.77347
G1 X7.68 Y12.287 E0.78595
G1 X8.341 Y12.009 E0.80281
G1 X8.425 Y11.973 E0.80354
G1 X9.168 Y11.714 E0.8174
G1 X9.383 Y11.632 E0.82164
G1 X9.297 Y11.735
G0 F3600 X9.085 Y12.044
G1 F1500 E-5.67836
G0 F3600 X9.003 Y11.987
G0 X12.438 Y9.462
G1 F1500 E0.82164
G0 F3600 X12.811 Y9.407
G1 F1800 X12.43 Y9.48 E0.83076
G1 X12.258 Y9.202 E0.83845
G1 X12.703 Y9.259 E0.84265
G1 X12.811 Y9.407
G0 F3600 X12.442 Y9.477
G1 F1500 E-5.65735
G0 F3600 X12.469 Y9.353
G0 X10.606 Y5.85
G0 X9.16 Y5.785
G1 F1500 E0.84265
G0 F3600 X9.135 Y5.689
G1 F1800 X9.733 Y5.468 E0.85764
G1 X10.516 Y5.221 E0.87695
G1 X10.678 Y5.169 E0.88095
G1 X11.216 Y5.442 E0.89513
G1 X11.38 Y5.528 E0.89949
G1 X10.614 Y5.868 E0.91199
G1 X10.062 Y6.111 E0.92479
G1 X9.478 Y6.361 E0.93946
G1 X8.877 Y6.552 E0.95429
G1 X8.766 Y6.589 E0.95704
G1 X8.332 Y6.206 E0.97065
G1 X8.129 Y5.967 E0.97802
G1 X8.669 Y5.761 E0.98612
G1 X9.135 Y5.689 E0.99721
G0 F3600 X9.487 Y5.559
G1 F1500 E-5.50279
G0 F3600 X9.519 Y5.653
G0 X9.508 Y4.082
G1 F1500 E0.99721
G0 F3600 X9.306 Y3.785
G1 F1800 X9.525 Y4.091 E1.00605
G1 X9.455 Y4.091
G1 X9.059 Y3.702 E1.0131
G1 X8.722 Y3.325 E1.02499
G1 X8.415 Y3.008 E1.03536
G1 X8.092 Y2.557 E1.04841
G1 X8.549 Y2.394 E1.05308
G1 X8.597 Y2.42
G1 X8.863 Y2.953 E1.06371
G1 X9.138 Y3.452 E1.0726
G1 X9.306 Y3.785 E1.07744
G0 F3600 X9.524 Y4.09
G1 F1500 E-5.42256
G0 F3600 X9.429 Y4.041
G0 X8.43 Y2.996
G0 X7.33 Y4.375
G1 F1500 E1.07744
G0 F3600 X7.137 Y4.196
G1 F1800 X7.363 Y4.376 E1.08423
G1 X7.726 Y4.779 E1.09699
G1 X7.744 Y4.814 E1.09791
G1 X7.24 Y5.049 E1.1056
G1 X7.015 Y5.123 E1.11117
G1 X6.576 Y4.716 E1.12525
G1 X6.192 Y4.34 E1.13788
G1 X5.506 Y3.723 E1.15958
G1 X6.202 Y3.493 E1.1671
G1 X6.417 Y3.423 E1.17241
G1 X6.76 Y3.788 E1.18419
G1 X7.137 Y4.196 E1.19725
G0 F3600 X7.363 Y4.376
G0 X7.421 Y4.44
G0 X7.354 Y4.414
G1 F1500 E-5.30275
G0 F3600 X7.302 Y4.457
G0 X7.033 Y6.168
G0 X4.502 Y4.283
G0 X4.679 Y2.926
G0 X7.778 Y1.566
G0 X13.618 Y0.733
G0 X14.483 Y0.095
G1 F1500 E1.19725
G0 F3600 X14.467 Y0.106
G1 F1800 X14.581 Y-.395 E1.20933
G1 X14.683 Y-.809 E1.21936
G1 X14.993 Y-.395 E1.22424
G1 X15.348 Y0.13 E1.23914
G1 X14.756 Y0.135 E1.24528
G1 X14.467 Y0.106 E1.24752
G0 F3600 X14.55 Y-.26
G1 F1500 E-5.25248
G0 F3600 X14.647 Y-.237
G0 X13.412 Y-1.261
G1 F1500 E1.24752
G0 F3600 X13.565 Y-1.62
G1 F1800 X13.315 Y-.943 E1.26449
G1 X13.022 Y-1.451 E1.26962
G1 X12.925 Y-1.609 E1.27186
G1 X13.286 Y-1.649 E1.27607
G1 X13.565 Y-1.62 E1.27741
G0 F3600 X13.435 Y-1.268
G1 F1500 E-5.22259
G0 F3600 X13.343 Y-1.303
G0 X14.939 Y1.635
G1 F1500 E1.27741
G0 F3600 X15.512 Y2.255
G1 F1800 X15.402 Y2.393 E1.28156
G1 X15.132 Y1.962 E1.28878
G1 X14.922 Y1.626 E1.29672
G1 X15.567 Y1.625 E1.30505
G1 X15.601 Y1.81 E1.30693
G1 X15.512 Y2.255 E1.3117
G0 F3600 X15.402 Y2.393
G0 X15.297 Y2.225
G1 F1500 E-5.1883
G0 F3600 X15.382 Y2.173
G0 X17.384 Y1.221
G0 X25.282 Y-2.111
;TYPE:WALL-INNER
G1 F1500 E1.3117
G1 F1800 X24.879 Y-3.218 E1.3394
G1 X24.612 Y-3.804 E1.35454
G1 X24.354 Y-4.362 E1.369
G1 X24.059 Y-4.957 E1.38461
G1 X23.839 Y-5.424 E1.39675
G1 X23.471 Y-5.791 E1.40897
G1 X23.064 Y-6.005 E1.41978
G1 X22.596 Y-6.103 E1.43103
G1 X21.86 Y-6.038 E1.4484
G1 X21.212 Y-6.014 E1.46365
G1 X20.582 Y-5.877 E1.4788
G1 X20.051 Y-5.79 E1.49146
G1 X19.477 Y-5.621 E1.50553
G1 X18.928 Y-5.449 E1.51905
G1 X18.383 Y-5.237 E1.5328
G1 X17.97 Y-5.024 E1.54373
G1 X17.314 Y-4.791 E1.5601
G1 X16.294 Y-4.082 E1.58931
G1 X15.824 Y-3.734 E1.60306
G1 X15.398 Y-3.345 E1.61662
G1 X15.057 Y-3.593 E1.62654
G1 X14.549 Y-3.932 E1.6409
G1 X13.843 Y-4.256 E1.65916
G1 X13.363 Y-4.408 E1.671
G1 X12.735 Y-4.486 E1.68588
G1 X12.152 Y-4.519 E1.69961
G1 X11.466 Y-4.358 E1.71618
G1 X10.764 Y-4.101 E1.73376
G1 X10.248 Y-3.818 E1.74759
G1 X9.648 Y-3.505 E1.76351
G1 X9.103 Y-3.15 E1.7788
G1 X8.794 Y-2.912 E1.78797
G1 X8.266 Y-2.139 E1.80998
G1 X7.948 Y-1.545 E1.82582
G1 X7.798 Y-1.089 E1.83711
G1 X7.659 Y-.442 E1.85267
G1 X7.65 Y-.375 E1.85426
G1 X7.587 Y-.347 E1.85588
G1 X7.033 Y-.155 E1.86967
G1 X6.425 Y0.074 E1.88494
G1 X5.904 Y0.264 E1.89798
G1 X5.323 Y0.426 E1.91217
G1 X4.642 Y0.864 E1.93121
G1 X4.074 Y1.18 E1.94649
G1 X3.628 Y1.425 E1.95845
G1 X3.15 Y1.695 E1.97136
G1 X2.622 Y1.945 E1.9851
G1 X2.185 Y2.18 E1.99676
G1 X1.79 Y2.047 E2.00656
G1 X1.467 Y2.005 E2.01422
G1 X0.739 Y2.004 E2.03134
G1 X0.24 Y2.079 E2.04321
G1 X-.366 Y2.28 E2.05822
G1 X-.932 Y2.545 E2.07291
G1 X-1.141 Y2.174 E2.08293
G1 X-1.493 Y1.721 E2.09641
G1 X-1.819 Y1.246 E2.10996
G1 X-2.32 Y0.753 E2.12649
G1 X-2.688 Y0.468 E2.13743
G1 X-3.159 Y0.193 E2.15026
G1 X-3.613 Y-.128 E2.16333
G1 X-4.125 Y-.401 E2.17697
G1 X-4.752 Y-.675 E2.19306
G1 X-5.29 Y-.895 E2.20673
G1 X-5.914 Y-1.066 E2.22194
G1 X-6.203 Y-1.084 E2.22875
G1 X-6.84 Y-1.084 E2.24373
G1 X-7.333 Y-1.052 E2.25535
G1 X-8.293 Y-.754 E2.27898
G1 X-9.438 Y-.162 E2.30929
G1 X-9.987 Y0.177 E2.32446
G1 X-10.142 Y0.307 E2.32922
G1 X-10.609 Y0.613 E2.34235
G1 X-11.051 Y1.034 E2.3567
G1 X-11.424 Y1.417 E2.36927
G1 X-11.752 Y1.908 E2.38315
G1 X-12.151 Y2.478 E2.39951
G1 X-12.396 Y3.067 E2.41451
G1 X-12.665 Y3.965 E2.43655
G1 X-12.696 Y4.273 E2.44383
G1 X-12.698 Y5.689 E2.47713
G1 X-12.647 Y6.184 E2.48883
G1 X-12.873 Y6.249 E2.49436
G1 X-13.306 Y6.545 E2.50669
G1 X-13.89 Y6.274 E2.52183
G1 X-14.471 Y6.082 E2.53622
G1 X-15.07 Y5.937 E2.55071
G1 X-15.418 Y5.933 E2.55889
G1 X-16.042 Y5.934 E2.57356
G1 X-16.692 Y6.093 E2.5893
G1 X-17.375 Y6.331 E2.6063
G1 X-17.955 Y6.605 E2.62139
G1 X-18.433 Y6.921 E2.63486
G1 X-19.119 Y7.336 E2.65371
G1 X-19.684 Y7.903 E2.67253
G1 X-20.045 Y8.317 E2.68545
G1 X-20.405 Y8.772 E2.69909
G1 X-20.71 Y9.195 E2.71135
G1 X-20.978 Y9.774 E2.72635
G1 X-21.209 Y10.421 E2.74251
G1 X-21.231 Y10.747 E2.75019
G1 X-21.233 Y12.188 E2.78407
G1 X-21.154 Y12.673 E2.79563
G1 X-20.984 Y13.24 E2.80955
G1 X-21.152 Y13.149
G1 X-21.677 Y12.936 E2.81694
G1 X-22.325 Y12.684 E2.83329
G1 X-22.93 Y12.507 E2.84811
G1 X-23.334 Y12.402 E2.85792
G1 X-23.946 Y12.271 E2.87264
G1 X-24.39 Y12.226 E2.88313
G1 X-25.591 Y12.226 E2.91137
G1 X-26.124 Y12.219 E2.9239
G1 X-26.378 Y12.226 E2.92988
G1 X-27.651 Y12.226 E2.95981
G1 X-28.203 Y12.312 E2.97295
G1 X-28.829 Y12.454 E2.98804
G1 X-29.47 Y12.629 E3.00366
G1 X-30.104 Y12.853 E3.01947
G1 X-30.715 Y13.085 E3.03484
G1 X-31.082 Y13.234 E3.04415
G1 X-31.023 Y12.963 E3.04519
G1 X-31.017 Y12.378 E3.05895
G1 X-30.895 Y11.863 E3.07139
G1 X-30.824 Y11.448 E3.08129
G1 X-30.584 Y10.319 E3.10843
G1 X-30.45 Y9.775 E3.1216
G1 X-30.298 Y9.142 E3.13691
G1 X-30.155 Y8.557 E3.15107
G1 X-29.999 Y7.989 E3.16492
G1 X-29.863 Y7.464 E3.17767
G1 X-29.736 Y7.039 E3.1881
G1 X-29.698 Y6.615 E3.19811
G1 X-29.577 Y6.166 E3.20905
G1 X-29.138 Y4.748 E3.24395
G1 X-28.902 Y4.217 E3.25761
G1 X-28.633 Y3.643 E3.27252
G1 X-28.419 Y3.172 E3.28468
G1 X-28.138 Y2.78 E3.29602
G1 X-27.751 Y2.272 E3.31104
G1 X-27.346 Y1.871 E3.32444
G1 X-27.063 Y1.568 E3.33419
G1 X-26.675 Y1.265 E3.34576
G1 X-26.161 Y0.882 E3.36084
G1 X-25.765 Y0.638 E3.37177
G1 X-25.035 Y0.204 E3.39174
G1 X-24.55 Y-0.052 E3.40464
G1 X-24.048 Y-.263 E3.41744
G1 X-22.74 Y-.716 E3.44999
G1 X-22.144 Y-.932 E3.46489
G1 X-21.49 Y-1.128 E3.48095
G1 X-20.918 Y-1.293 E3.49494
G1 X-20.396 Y-1.424 E3.5076
G1 X-19.961 Y-1.53 E3.51813
G1 X-19.423 Y-1.572 E3.53082
G1 X-18.839 Y-1.711 E3.54493
G1 X-18.329 Y-1.829 E3.55724
G1 X-17.738 Y-1.91 E3.57127
G1 X-16.884 Y-2.098 E3.59183
G1 X-16.327 Y-2.166 E3.60502
G1 X-15.713 Y-2.307 E3.61983
G1 X-15.216 Y-2.416 E3.6318
G1 X-14.585 Y-2.544 E3.64694
G1 X-14.021 Y-2.669 E3.66052
G1 X-13.439 Y-2.804 E3.67457
G1 X-13.129 Y-2.886 E3.68211
G1 X-12.774 Y-2.917 E3.69049
G1 X-12.09 Y-3.099 E3.70713
G1 X-11.332 Y-3.351 E3.72591
G1 X-10.592 Y-3.566 E3.74403
G1 X-9.799 Y-3.848 E3.76382
G1 X-9.238 Y-4.036 E3.77773
G1 X-8.675 Y-4.255 E3.79194
G1 X-8.333 Y-4.373 E3.80044
G1 X-7.963 Y-4.442 E3.80929
G1 X-7.312 Y-4.717 E3.82591
G1 X-6.825 Y-4.914 E3.83826
G1 X-6.21 Y-5.173 E3.85395
G1 X-5.638 Y-5.426 E3.86866
G1 X-5.07 Y-5.682 E3.88331
G1 X-4.468 Y-5.909 E3.89844
G1 X-3.824 Y-6.203 E3.91508
G1 X-3.357 Y-6.471 E3.92774
G1 X-2.79 Y-6.753 E3.94263
G1 X-2.323 Y-6.99 E3.95495
G1 X-1.764 Y-7.244 E3.96938
G1 X-1.287 Y-7.507 E3.98219
G1 X-.601 Y-7.921 E4.00103
G1 X-.107 Y-8.211 E4.0145
G1 X0.636 Y-8.604 E4.03426
G1 X1.581 Y-9.189 E4.0604
G1 X2.038 Y-9.531 E4.07382
G1 X2.504 Y-9.81 E4.08659
G1 X2.86 Y-9.995 E4.09602
G1 X3.471 Y-10.474 E4.11428
G1 X4.08 Y-10.898 E4.13173
G1 X4.503 Y-11.196 E4.14389
G1 X5.129 Y-11.658 E4.16219
G1 X5.61 Y-12.048 E4.17675
G1 X6.069 Y-12.413 E4.19053
G1 X6.674 Y-12.884 E4.20856
G1 X7.173 Y-13.341 E4.22447
G1 X7.6 Y-13.782 E4.23891
G1 X8.151 Y-14.199 E4.25515
G1 X8.68 Y-14.727 E4.27273
G1 X9.035 Y-15.149 E4.2857
G1 X9.503 Y-15.557 E4.30029
G1 X10.05 Y-16.166 E4.31954
G1 X10.422 Y-16.657 E4.33403
G1 X10.782 Y-17.05 E4.34656
G1 X11.207 Y-17.6 E4.3629
G1 X11.542 Y-18.081 E4.37668
G1 X11.842 Y-18.531 E4.3894
G1 X12.128 Y-18.976 E4.40184
G1 X12.462 Y-19.476 E4.41598
G1 X12.848 Y-20.133 E4.43389
G1 X13.062 Y-20.746 E4.44916
G1 X13.214 Y-21.273 E4.46206
G1 X13.084 Y-22.149 E4.48288
G1 X11.934 Y-23.274 E4.52071
G1 X11.004 Y-23.299 E4.54258
G1 X10.347 Y-22.781 E4.56225
G1 X10.041 Y-22.21 E4.57749
G1 X9.773 Y-21.745 E4.59011
G1 X9.491 Y-21.266 E4.60318
G1 X9.217 Y-20.91 E4.61374
G1 X8.723 Y-20.341 E4.63146
G1 X8.388 Y-19.883 E4.6448
G1 X8.061 Y-19.561 E4.65559
G1 X7.484 Y-19.04 E4.67387
G1 X7.137 Y-18.648 E4.68618
G1 X6.702 Y-18.297 E4.69932
G1 X6.227 Y-17.93 E4.71344
G1 X5.799 Y-17.52 E4.72737
G1 X5.293 Y-17.137 E4.74229
G1 X4.849 Y-16.851 E4.75471
G1 X4.448 Y-16.55 E4.7665
G1 X3.421 Y-15.839 E4.79587
G1 X2.915 Y-15.566 E4.80939
G1 X2.26 Y-15.172 E4.82736
G1 X1.696 Y-14.793 E4.84334
G1 X1.276 Y-14.562 E4.85461
G1 X0.775 Y-14.301 E4.86789
G1 X0.298 Y-14.07 E4.88036
G1 X-.324 Y-13.752 E4.89678
G1 X-.746 Y-13.499 E4.90835
G1 X-1.285 Y-13.237 E4.92244
G1 X-1.803 Y-13.02 E4.93565
G1 X-2.284 Y-12.814 E4.94795
G1 X-3.044 Y-12.484 E4.96743
G1 X-3.594 Y-12.221 E4.98177
G1 X-4.47 Y-11.86 E5.00405
G1 X-4.777 Y-11.742 E5.01178
G1 X-5.291 Y-11.605 E5.02429
G1 X-5.817 Y-11.385 E5.03769
G1 X-6.469 Y-11.15 E5.05399
G1 X-7.068 Y-10.929 E5.069
G1 X-7.621 Y-10.732 E5.08281
G1 X-8.495 Y-10.453 E5.10438
G1 X-8.835 Y-10.416 E5.11242
G1 X-9.506 Y-10.212 E5.12891
G1 X-10.075 Y-10.027 E5.14298
G1 X-10.587 Y-9.89 E5.15544
G1 X-11.103 Y-9.747 E5.16803
G1 X-11.669 Y-9.6 E5.18178
G1 X-12.259 Y-9.459 E5.19604
G1 X-12.824 Y-9.319 E5.20973
G1 X-13.392 Y-9.209 E5.22333
G1 X-13.682 Y-9.146 E5.23031
G1 X-14.191 Y-9.125 E5.24229
G1 X-14.668 Y-9.001 E5.25388
G1 X-15.489 Y-8.853 E5.27349
G1 X-15.99 Y-8.798 E5.28535
G1 X-16.365 Y-8.712 E5.29439
G1 X-16.838 Y-8.674 E5.30555
G1 X-17.362 Y-8.563 E5.31814
G1 X-17.995 Y-8.525 E5.33305
G1 X-18.523 Y-8.424 E5.34569
G1 X-19.074 Y-8.417 E5.35865
G1 X-19.748 Y-8.329 E5.37463
G1 X-20.237 Y-8.275 E5.3862
G1 X-21.848 Y-8.275 E5.42408
G1 X-22.342 Y-8.388 E5.436
G1 X-22.752 Y-8.538 E5.44626
G1 X-23.034 Y-8.73 E5.45428
G1 X-23.002 Y-8.863 E5.4575
G1 X-22.632 Y-9.468 E5.47417
G1 X-22.277 Y-10.035 E5.4899
G1 X-21.948 Y-10.532 E5.50392
G1 X-21.739 Y-10.99 E5.51576
G1 X-21.436 Y-11.451 E5.52873
G1 X-21.097 Y-11.941 E5.54274
G1 X-21.009 Y-12.086 E5.54673
G1 X-20.722 Y-12.525 E5.55906
G1 X-20.461 Y-12.955 E5.57089
G1 X-20.079 Y-13.533 E5.58718
G1 X-19.81 Y-13.924 E5.59834
G1 X-19.401 Y-14.427 E5.61358
G1 X-19.072 Y-15.007 E5.62926
G1 X-18.805 Y-15.375 E5.63995
G1 X-18.41 Y-15.831 E5.65413
G1 X-18.059 Y-16.313 E5.66815
G1 X-17.805 Y-16.708 E5.6792
G1 X-17.45 Y-17.123 E5.69204
G1 X-17.028 Y-17.643 E5.70778
G1 X-16.642 Y-18.148 E5.72273
G1 X-16.267 Y-18.59 E5.73636
G1 X-15.941 Y-18.995 E5.74858
G1 X-15.508 Y-19.441 E5.7632
G1 X-15.158 Y-19.907 E5.7769
G1 X-14.821 Y-20.274 E5.78862
G1 X-14.221 Y-20.86 E5.80834
G1 X-13.826 Y-21.335 E5.82286
G1 X-13.397 Y-21.777 E5.83735
G1 X-12.952 Y-22.149 E5.85099
G1 X-12.381 Y-22.771 E5.87084
G1 X-11.816 Y-23.299 E5.88902
G1 X-11.407 Y-23.628 E5.90136
G1 X-11.014 Y-24.042 E5.91479
G1 X-10.653 Y-24.337 E5.92575
G1 X-9.791 Y-25.057 E5.95216
G1 X-9.359 Y-25.427 E5.96553
G1 X-8.898 Y-25.784 E5.97924
G1 X-8.6 Y-26.023 E5.98822
G1 X-7.965 Y-26.471 E6.0065
G1 X-7.066 Y-27.171 E6.03329
G1 X-6.537 Y-27.461 E6.04747
G1 X-5.608 Y-28.123 E6.07429
G1 X-5.215 Y-28.371 E6.08522
